X:336
T: Star Above The Garter, The
R:jig 32
M: 12/8
L:1/8
Q:1/4=140
R: slide
K:Gmaj
Bc|:"G"d2B BAG "D"~A3 ABA|"G"G2E "C"c2B "G"BAG "D"ABc|
"G"d2B BAG "D"~A3 ABA|"C"G2E c2E "D"DED D3:|
|:"D"d2e f2a "G"g2e d2B|G2B "C"c2B "G"BAG "D"ABc|
"D"d2e f2a "G"g2e d2B|G2B "C"c2E "D"DED D3:|

